assets/svg/icon_categories_unflow.svg

<svg width="24" height="24" viewBox="0 0 24 24" fill="none" xmlns="http://www.w3.org/2000/svg">
<g id="icon/categories_unflow">
<g id="Vector">
<path fill-rule="evenodd" clip-rule="evenodd" d="M6.72084 6.41859C6.72084 3.97827 8.69911 2 11.1394 2C13.5798 2 15.558 3.97827 15.558 6.41859C15.558 8.8589 13.5798 10.8372 11.1394 10.8372C8.69911 10.8372 6.72084 8.8589 6.72084 6.41859ZM11.1394 3.39534C9.46974 3.39534 8.11618 4.74889 8.11618 6.41859C8.11618 8.08828 9.46974 9.44183 11.1394 9.44183C12.8092 9.44183 14.1626 8.08828 14.1626 6.41859C14.1626 4.74889 12.8092 3.39534 11.1394 3.39534Z" fill="#727689"/>
<path fill-rule="evenodd" clip-rule="evenodd" d="M5.53541 13.5485C7.00469 12.722 8.98749 12.2328 11.1396 12.2328C13.2918 12.2328 15.2746 12.722 16.7439 13.5485C18.1913 14.3627 19.2791 15.5966 19.2791 17.1165L19.2792 17.2114C19.2802 18.2922 19.2815 19.6486 18.0918 20.6175C17.5063 21.0943 16.6871 21.4334 15.5803 21.6574C14.4706 21.882 13.0241 22.0002 11.1396 22.0002C9.25519 22.0002 7.80872 21.882 6.6989 21.6574C5.59218 21.4334 4.77303 21.0943 4.18748 20.6175C2.99769 19.6486 2.99901 18.2922 3.00006 17.2114L3.00012 17.1165C3.00012 15.5966 4.08801 14.3627 5.53541 13.5485ZM6.2195 14.7646C4.97349 15.4655 4.39546 16.3246 4.39546 17.1165C4.39546 18.3331 4.43297 19.0179 5.06857 19.5355C5.41324 19.8162 5.98944 20.0902 6.97573 20.2898C7.95893 20.4888 9.30315 20.6049 11.1396 20.6049C12.9761 20.6049 14.3203 20.4888 15.3035 20.2898C16.2898 20.0902 16.866 19.8162 17.2106 19.5355C17.8463 19.0179 17.8838 18.3331 17.8838 17.1165C17.8838 16.3246 17.3058 15.4655 16.0598 14.7646C14.8356 14.0761 13.0975 13.6282 11.1396 13.6282C9.18175 13.6282 7.44364 14.0761 6.2195 14.7646Z" fill="#727689"/>
</g>
<path id="Vector_2" d="M17.5001 12L21.4999 8M21.4997 12L17.5 8" stroke="#727689" stroke-width="1.2" stroke-linecap="round"/>
</g>
</svg>

<svg xmlns="http://www.w3.org/2000/svg" width="24" height="24" fill="none"><g fill="#727689" fill-rule="evenodd" clip-rule="evenodd"><path d="M6.72 6.419a4.419 4.419 0 1 1 8.838 0 4.419 4.419 0 0 1-8.837 0m4.42-3.024a3.023 3.023 0 1 0 0 6.047 3.023 3.023 0 0 0 0-6.047M5.535 13.549c1.47-.827 3.452-1.316 5.605-1.316 2.152 0 4.135.489 5.604 1.316 1.447.814 2.535 2.048 2.535 3.567v.095c.001 1.081.003 2.438-1.187 3.407-.586.476-1.405.815-2.512 1.04-1.11.224-2.556.342-4.44.342s-3.331-.118-4.441-.343c-1.107-.224-1.926-.563-2.512-1.04C2.997 19.65 3 18.293 3 17.212v-.095c0-1.52 1.088-2.753 2.535-3.567m.684 1.216c-1.246.7-1.824 1.56-1.824 2.351 0 1.217.038 1.902.674 2.42.344.28.92.554 1.907.754.983.199 2.327.315 4.164.315s3.18-.116 4.163-.315c.987-.2 1.563-.474 1.908-.755.635-.517.673-1.202.673-2.419 0-.791-.578-1.65-1.824-2.351-1.224-.689-2.962-1.137-4.92-1.137s-3.696.448-4.92 1.137"/></g><path stroke="#727689" stroke-linecap="round" stroke-width="1.2" d="m17.5 12 4-4m0 4-4-4"/></svg>
